X: 728
T: Mawang xiaodiao
%%abc-version 2.0
%%abcx-abcm2ps-target-version 5.9.1 (29 Sep 2008)
%%abc-creator hum2abc beta
%%abcx-conversion-date 2013/10/02 07:52:30
%%abc-edited-by Helmut Schaffrath
%%humdrum-veritas 941913234
%%humdrum-veritas-data 3435289519
%%continueall 1
%%barnumbers 0
L: 1/16
M: 2/4
K: A
e2 e2 a2 f e [I:setbarnb 1]| 
d2 e2B4 | 
e2 e c B2 B F | 
A8 | 
e2> c2 B2 c2 | 
A2> F2E4 | 
A B G F E F E B, | 
E8 |]  



